X: 18833
T: Immigrant, The
R: waltz
M: 3/4
K: Dmajor
de|f4 ed|B4 d2|B2 A4-|A4 fa|
b2 a3f|f3 ede|e6-|e3 ede|
f4 ed|B4 d2|B2 A4-|A4 B2|
A2 B2 d2|B4 d2|e2 f2 a2|f4 fa|
b2 a3e|f2 fede|e6-|e4 de||
f4 ed|B4 d2|B2 A4-|A4 fa|
b2 a3e|f2 fede|e6-|e4 de|
f4 ed|B4 d2|B2 A4-|A4 B2|
A3F DE|E4 DE|FA d2 c2|B4 de|
f2 a3f-|f4 fe|d6|z6|
e6|a6|f2 e2 d2|B6|
A2 B2 d2|e2 d2 B2|A6-|A6|
e6|a6|f2 e2 d2|B4 c2|
d2 e2 f2|b2 a2 f2|e6-|e4 de||
f4 ed|B4 d2|B2 A4-|A4 B2|
A3F DE|E4 DE|FA d2 c2|B4 de|
f2 a3f|e4 ed|d6-|d6||

